X:89
T: Der schwatzhafte Junggeselle
N: Q0139D
O: Mitteleuropa, Schweiz, Graubuenden, Bez. Heinzenberg, Portein
N: Anhaengsel an der 1. und 2. Zeile.
R: Ballade, Indiskretion, verweigerter Beischlaf; Studenten - Lied
M: 2/4
L: 1/16
K: A
e2 | c3cc3c | c2A2z4 | c2A2z2
e2 | (3c2c2c2c2c2 | c2A2z4 | c2A2z2
e2 | c3cc3c | c4z2e2 | f2e2d2c2 | B6
A2 | G2B2d2e2 | g6f2 | e2e2d2d2 | c4z2
e2 | c3cc3c | c4z2e2 | f2e2d2c2 | B6
A2 | G2B2d2e2 | g6f2 | e2e2d2d2 | c4z2

@@@ Tune index: 1587
